assets/Person bouncing ball/Default/Flat/person_bouncing_ball_flat_default.svg

<svg width="32" height="32" viewBox="0 0 32 32" fill="none" xmlns="http://www.w3.org/2000/svg">
<path d="M23.6899 14.55L23.6399 11.08C23.6299 10.59 23.3499 10.14 22.9099 9.92997L22.1099 9.52998C20.9499 8.95998 19.7199 8.54997 18.4499 8.32997C17.3599 8.13997 16.2499 8.09998 15.1599 8.19998C14.6399 8.24998 14.1699 8.50997 13.8499 8.91997C13.2899 9.64997 13.0599 10.57 13.1999 11.47L13.3099 12.17C13.4599 13.16 13.7199 14.14 14.0799 15.07L14.8399 17.04L17.6699 18L20.1699 17.04L19.5799 14.89L18.2199 11.29C18.1499 11.1 18.2899 10.89 18.4899 10.89H18.6699C19.5099 10.88 20.3399 11.01 21.1399 11.28L21.3899 11.37C21.5599 11.43 21.6699 11.58 21.6899 11.75L21.8999 14.27C21.9099 14.45 21.8599 14.63 21.7399 14.76C21.6299 14.88 21.5799 15.03 21.5799 15.2V15.54C21.5799 16.04 21.9799 16.44 22.4799 16.44H22.8199C23.3199 16.44 23.7199 16.04 23.7199 15.54C23.6899 15.05 23.6899 14.55 23.6899 14.55Z" fill="#FCB100"/>
<path d="M11.4 29.5801C10.92 30.3501 10.24 29.82 10.24 29.82L6.29995 27.39C6.17995 27.32 6.14995 27.16 6.22995 27.05C6.35995 26.87 6.54995 26.7601 6.76995 26.7401H6.80995C7.19995 26.7001 7.58995 26.7201 7.96995 26.7901L9.09995 27C9.39995 27.0601 9.69995 26.9801 9.92995 26.7901C10.19 26.5701 10.39 26.2801 10.5 25.9501L11.55 22.7901C11.77 22.1501 12.11 21.55 12.57 21.05L14.27 19.17C14.69 18.7 14.91 18.0801 14.86 17.4501L14.83 17.05L15.75 17.2001C16.75 17.3601 17.75 17.3701 18.75 17.2401L20.17 17.05L20.22 17.7201C20.2371 17.9652 20.2184 18.2136 20.164 18.4559L21.49 19.97C21.63 20.14 21.87 20.18 22.06 20.08C22.06 20.08 26.93 17.4 27.25 17.27C28.07 16.94 28.3 17.75 28.3 17.75L29.97 21.95C30.02 22.07 29.95 22.22 29.84 22.26C29.64 22.33 29.42 22.3 29.24 22.19L29.2 22.17C28.87 21.97 28.58 21.73 28.32 21.45L27.56 20.62C27.36 20.4 27.07 20.28 26.78 20.3C26.53 20.32 26.28 20.38 26.05 20.5C26.04 20.5 26.04 20.49 26.04 20.49L21.5 22.92C20.98 23.2 20.35 23.18 19.85 22.87C19.38 22.59 18.98 22.21 18.67 21.76L17.97 20.76L17.9801 20.7485L14.74 22.8C14.28 23.09 13.93 23.52 13.73 24.03C13.12 25.59 11.76 28.9901 11.4 29.5801Z" fill="#FCB100"/>
<path d="M17.8999 20.86C17.8999 20.88 18.0299 21.1 18.1899 21.37C18.5799 22.02 19.1099 22.59 19.7399 23.02L20.1799 23.33C20.3299 23.43 20.5399 23.39 20.6299 23.24L20.7599 23.03C21.2699 22.22 21.5899 21.31 21.6999 20.37L21.7299 20.12C21.7499 19.98 21.7099 19.84 21.6199 19.72L21.5399 19.61C21.1999 19.16 20.0399 17.41 20.0399 17.41L17.8999 20.86Z" fill="#636363"/>
<path d="M13.3801 9.75L13.6901 13.25L11.9001 14.94C11.7801 15.05 11.6601 15.15 11.5301 15.24L11.4901 15.27C11.2101 15.46 10.9001 15.61 10.5701 15.7C10.3501 15.76 10.1301 15.8 9.91011 15.81L8.57011 15.9C8.47011 15.91 8.37011 15.95 8.30011 16.02L7.67011 16.62C7.60011 16.68 7.51011 16.72 7.42011 16.72C7.18011 16.72 7.01011 16.5 7.06011 16.26C7.10011 16.11 6.98011 15.96 6.82011 15.96H6.74011C6.71011 15.96 6.68011 15.97 6.65011 15.98L5.57011 16.47C5.32011 16.58 5.03011 16.42 5.01011 16.14C5.00011 16 5.06011 15.86 5.18011 15.77L5.61011 15.48C6.21011 15.07 6.87011 14.76 7.58011 14.57L9.92011 13.93C10.2801 13.83 10.5901 13.62 10.8101 13.32L13.3801 9.75Z" fill="#FFC83D"/>
<path d="M14.9201 17.06L16.1801 17.28C17.0601 17.44 17.9601 17.43 18.8401 17.28L19.9701 17.08C20.0701 17.06 20.1601 17.14 20.1701 17.24C20.2901 17.68 20.3201 18.14 20.2201 18.58C20.1501 18.89 20.0401 19.19 19.8901 19.47C19.6301 19.95 19.2501 20.36 18.7901 20.66L15.5401 22.66C15.3801 22.76 15.1701 22.76 15.0201 22.64L14.6401 22.35C13.9401 21.82 13.3701 21.15 12.9701 20.37C12.8801 20.19 12.9101 19.98 13.0501 19.84L13.7101 19.19C14.1201 18.78 14.4301 18.28 14.6101 17.72L14.8001 17.13C14.8201 17.08 14.8701 17.05 14.9201 17.06Z" fill="#9B9B9B"/>
<path d="M6.5 22C7.88071 22 9 20.8807 9 19.5C9 18.1193 7.88071 17 6.5 17C5.11929 17 4 18.1193 4 19.5C4 20.8807 5.11929 22 6.5 22Z" fill="#FF6723"/>
<path d="M8.99878 19.5787C8.99959 19.5526 9 19.5263 9 19.5C9 19.4466 8.99832 19.3935 8.99502 19.341C8.44765 19.3177 7.90613 19.1107 7.46991 18.7199L8.36015 17.8297C8.30655 17.77 8.25013 17.713 8.19109 17.6587L7.28991 18.5599C6.88481 18.118 6.67255 17.5637 6.65119 17.0045C6.60117 17.0015 6.55076 17 6.5 17C6.47331 17 6.44671 17.0004 6.42022 17.0012C6.44369 17.6206 6.68059 18.2335 7.12991 18.7199L6.50991 19.3399L4.81927 17.6493C4.75992 17.7032 4.70319 17.7599 4.64926 17.8193L6.33991 19.5099L5.71991 20.1299C5.23353 19.6806 4.62056 19.4437 4.00125 19.4202C4.00042 19.4467 4 19.4733 4 19.5C4 19.553 4.00165 19.6057 4.0049 19.6579C4.56278 19.6812 5.11336 19.8955 5.54991 20.2999L4.65873 21.1911C4.71298 21.2501 4.77003 21.3065 4.82968 21.3601L5.70991 20.4799C6.10482 20.9111 6.31429 21.4495 6.33926 21.9949C6.39241 21.9983 6.446 22 6.5 22C6.52635 22 6.5526 21.9996 6.57875 21.9988C6.55616 21.3876 6.32655 20.7825 5.88991 20.2999L6.50991 19.6799L8.18073 21.3507C8.24007 21.2968 8.29681 21.2401 8.35073 21.1807L6.67991 19.5099L7.29991 18.8899C7.78251 19.3265 8.38764 19.5562 8.99878 19.5787Z" fill="black"/>
<path d="M12.0599 28.13C12.4599 27.18 12.9299 26.02 13.3199 25.04L11.1399 24.04L10.5099 25.95C10.4299 26.19 10.3099 26.4 10.1399 26.59C10.6599 26.99 11.4899 27.67 12.0599 28.13Z" fill="#D3D3D3"/>
<path d="M14.7143 17.2443C14.6874 17.2388 14.6623 17.2337 14.64 17.23C14.5 17.2 14.39 17.1 14.34 16.97L13.71 14.75C13.3 12.88 13.21 11.33 13.27 10.36C13.3 9.99999 13.4 9.65999 13.57 9.33999L13.75 9.50999C14.01 9.74999 14.36 9.87999 14.71 9.87999C15.24 9.86999 15.72 9.55999 15.94 9.06999L16.34 8.17999C16.37 8.13999 16.41 8.12 16.45 8.12H17.36C17.44 8.12 17.5 8.19999 17.47 8.27999L16.94 9.56999C16.88 9.69999 16.77 10.09 16.71 10.49C16.61 11.13 17.15 11.71 17.8 11.62L17.92 11.59L18.18 11.51C18.32 11.47 18.46 11.54 18.51 11.67L19.33 13.81L20.38 16.79C20.44 17 20.31 17.22 20.09 17.26L19.96 17.28C18.32 17.58 16.5 17.58 14.86 17.27C14.8098 17.2637 14.7596 17.2535 14.7143 17.2443Z" fill="#FF6723"/>
<path d="M25.9 20.77L25.92 20.76L25.9756 20.737C26.1152 20.679 26.2147 20.6377 26.33 20.62C26.5 20.59 26.68 20.61 26.85 20.66L27.24 20.78C27.68 20.91 28.05 21.19 28.31 21.57L28.87 22.4C28.95 22.53 29.11 22.59 29.26 22.55L29.96 22.36C30.17 22.3 30.28 22.07 30.2 21.86L28.2 16.94C28.12 16.75 27.63 16.77 27.44 16.85L25.06 18.2C24.73 18.33 24.57 18.71 24.71 19.04V19.05C24.8 19.27 25.05 19.38 25.27 19.29H25.28C25.44 19.22 25.62 19.35 25.61 19.52C25.6013 19.6637 25.6039 19.8415 25.6064 20.0072C25.6096 20.2221 25.6126 20.4166 25.59 20.49C25.58 20.54 25.58 20.59 25.6 20.63C25.62 20.76 25.76 20.82 25.9 20.77Z" fill="#FF6723"/>
<path d="M10.3401 25.9399L10.3301 25.9499L10.3071 25.9868C10.2204 26.1258 10.163 26.2179 10.0801 26.3099C9.96011 26.4399 9.81011 26.5299 9.64011 26.5899L9.26011 26.7199C8.83011 26.8699 8.36011 26.8699 7.93011 26.7099L6.99011 26.3699C6.85011 26.3199 6.69011 26.3599 6.59011 26.4799L6.14011 27.0499C6.01011 27.2299 6.06011 27.4799 6.24011 27.5899L10.7601 30.3699C10.9401 30.4799 11.3201 30.1699 11.4301 29.9899L12.5601 27.4899C12.7501 27.1899 12.6501 26.7899 12.3501 26.5999L12.3401 26.5899C12.1401 26.4699 11.8701 26.5299 11.7501 26.7299L11.7401 26.7399C11.6501 26.8899 11.4301 26.8899 11.3401 26.7499C11.2559 26.619 11.1389 26.464 11.0331 26.3237C10.9127 26.1642 10.8067 26.0238 10.7801 25.9599C10.7601 25.9099 10.7301 25.8699 10.6901 25.8499C10.5701 25.7899 10.4201 25.8199 10.3401 25.9399Z" fill="#FF6723"/>
<path d="M12.9913 6.15399C12.9913 6.55354 12.6674 6.87744 12.2679 6.87744C11.8683 6.87744 11.5444 6.55354 11.5444 6.15399C11.5444 5.75444 11.8683 5.43054 12.2679 5.43054C12.6674 5.43054 12.9913 5.75444 12.9913 6.15399ZM17.2294 6.15399C17.2294 6.55354 16.9055 6.87744 16.5059 6.87744C16.1064 6.87744 15.7825 6.55354 15.7825 6.15399C15.7825 5.75444 16.1064 5.43054 16.5059 5.43054C16.9055 5.43054 17.2294 5.75444 17.2294 6.15399Z" fill="#FDBB11"/>
<path d="M14.8864 2.96277H13.9133C12.8217 2.96277 12.0022 3.87508 12.1271 5.00507L12.2903 7.51153C12.4056 8.36302 13.1322 9.00004 13.9901 9.00004H14.816C15.6739 9.00004 16.4037 8.36302 16.5158 7.51153L16.6726 5.00507C16.8039 4.01913 16.1124 3.11002 15.1233 2.97877C15.0465 2.96597 14.9665 2.96277 14.8864 2.96277Z" fill="#FFC83D"/>
<path d="M14.3931 7.49546C14.169 7.49546 13.9513 7.44425 13.7528 7.34181C13.7176 7.3226 13.676 7.3354 13.66 7.37062C13.6472 7.39303 13.6504 7.41864 13.6632 7.44104C13.9257 7.84439 14.4635 7.96284 14.8668 7.70034C14.9693 7.63312 15.0589 7.54348 15.1261 7.44104C15.1453 7.40903 15.1357 7.36422 15.1037 7.34501C15.0813 7.3322 15.0557 7.3322 15.0333 7.34181C14.8348 7.44425 14.6171 7.49546 14.3931 7.49546Z" fill="#990839"/>
<path d="M14.2268 6.03263L13.9995 6.77208C13.9611 6.89692 14.0315 7.02817 14.1564 7.06658C14.1788 7.07298 14.2012 7.07618 14.2236 7.07618H14.5629C14.6941 7.07618 14.7966 6.97055 14.7966 6.8393C14.7966 6.8169 14.7934 6.79129 14.787 6.76888L14.5597 6.02943C14.5309 5.9398 14.4316 5.88858 14.342 5.92059C14.2844 5.9398 14.246 5.98141 14.2268 6.03263Z" fill="#ED9200"/>
<path d="M12.7383 6.01973C12.8055 5.74443 13.0552 5.55237 13.3369 5.55237C13.6314 5.55237 13.8843 5.76044 13.9419 6.04854V6.06774C13.9419 6.12536 13.8971 6.17018 13.8395 6.17018H12.8567C12.8471 6.17018 12.8375 6.17018 12.8279 6.16698C12.7639 6.15097 12.7223 6.08375 12.7383 6.01973Z" fill="white"/>
<path d="M16.0484 6.01973C15.9811 5.74443 15.7347 5.55237 15.4498 5.55237C15.1553 5.55237 14.9024 5.76044 14.8416 6.04854V6.06774C14.8416 6.12536 14.8864 6.17018 14.944 6.17018H15.9299C15.9395 6.17018 15.9491 6.17018 15.9587 6.16698C16.0228 6.15097 16.0644 6.08375 16.0484 6.01973Z" fill="white"/>
<path d="M13.033 6.06771C13.033 5.84684 13.209 5.67078 13.4267 5.67078C13.4651 5.67078 13.5003 5.67398 13.5323 5.68678C13.7436 5.7476 13.8653 5.96208 13.8076 6.17335H13.049C13.0394 6.13814 13.033 6.10292 13.033 6.06771Z" fill="#7D4533"/>
<path d="M15.7536 6.06451C15.7536 5.84684 15.5775 5.67078 15.3598 5.67078C15.1422 5.67078 14.9661 5.84684 14.9629 6.06451C14.9661 6.09972 14.9693 6.13493 14.9789 6.17015H15.7408C15.7504 6.13493 15.7536 6.09972 15.7536 6.06451Z" fill="#7D4533"/>
<path d="M13.4265 5.84045C13.5513 5.84045 13.6537 5.93969 13.6537 6.06453C13.6537 6.10294 13.6441 6.13816 13.6281 6.17337H13.228C13.212 6.13816 13.2024 6.10294 13.2024 6.06773C13.2024 5.94289 13.3016 5.84045 13.4265 5.84045Z" fill="black"/>
<path d="M15.3633 5.84045C15.2384 5.84045 15.136 5.93969 15.136 6.06453C15.136 6.10294 15.1424 6.13816 15.1616 6.17017H15.5617C15.5777 6.13816 15.5873 6.10294 15.5873 6.06773C15.5873 5.94289 15.4881 5.84045 15.3633 5.84045Z" fill="black"/>
<path d="M13.3623 5.91088C13.3623 5.94977 13.3308 5.9813 13.2919 5.9813C13.253 5.9813 13.2214 5.94977 13.2214 5.91088C13.2214 5.87198 13.253 5.84045 13.2919 5.84045C13.3308 5.84045 13.3623 5.87198 13.3623 5.91088Z" fill="white"/>
<path d="M15.3088 5.91088C15.3088 5.94977 15.2773 5.9813 15.2384 5.9813C15.1995 5.9813 15.168 5.94977 15.168 5.91088C15.168 5.87198 15.1995 5.84045 15.2384 5.84045C15.2773 5.84045 15.3088 5.87198 15.3088 5.91088Z" fill="white"/>
<path d="M12.9467 5.24555C13.1351 5.11623 13.3668 5.06208 13.5969 5.0905C13.6654 5.09896 13.7278 5.05027 13.7363 4.98175C13.7448 4.91324 13.6961 4.85084 13.6276 4.84238C13.3391 4.80677 13.0458 4.87427 12.8052 5.03944C12.7483 5.07852 12.7339 5.15633 12.7729 5.21325C12.812 5.27016 12.8898 5.28462 12.9467 5.24555Z" fill="#D37034"/>
<path d="M15.9779 5.03944C15.7373 4.87427 15.444 4.80677 15.1556 4.84238C15.0871 4.85084 15.0384 4.91324 15.0469 4.98175C15.0553 5.05027 15.1177 5.09896 15.1862 5.0905C15.4164 5.06208 15.6481 5.11623 15.8364 5.24555C15.8933 5.28462 15.9711 5.27016 16.0102 5.21325C16.0493 5.15633 16.0348 5.07852 15.9779 5.03944Z" fill="#D37034"/>
<path d="M17.0979 3.85896C16.9731 3.64129 16.7746 3.47803 16.5377 3.398C16.2881 3.31798 16.0768 3.15152 15.9391 2.93064C15.6734 2.49209 15.1261 2.31923 14.6555 2.5177C14.4858 2.58813 14.297 2.58813 14.1273 2.5177C13.6631 2.31923 13.1222 2.48889 12.8533 2.91784C12.7092 3.14512 12.4947 3.31477 12.2419 3.4012C11.7041 3.58687 11.4192 4.17267 11.6048 4.71045C11.6368 4.80008 11.6785 4.88331 11.7329 4.96014C11.8097 5.07218 11.8513 5.20662 11.8545 5.34107V5.56195C11.9442 5.49792 12.0498 5.45311 12.1586 5.4371V5.4275V5.07858C12.1586 4.2623 12.8181 3.60287 13.6343 3.60287H14.1977C14.3162 3.60287 14.425 3.6765 14.4698 3.78854C14.6427 4.17267 15.0268 4.41915 15.4462 4.41915H16.064C16.4001 4.43516 16.6658 4.70725 16.6754 5.04657L16.6498 5.44671L16.6626 5.44991H16.669C16.765 5.47231 16.8546 5.51073 16.9347 5.56835V5.34427C16.9347 5.20662 16.9763 5.07538 17.0531 4.96334C17.2804 4.63363 17.2964 4.20468 17.0979 3.85896ZM12.2485 6.87431C12.1044 6.87111 11.9668 6.8231 11.8516 6.73987V7.14321C11.8516 7.52734 12.0852 7.87306 12.4438 8.01711C12.3669 7.85705 12.3157 7.68419 12.2933 7.50813L12.2485 6.87431ZM16.3713 8.0075C16.4418 7.85065 16.493 7.68419 16.5154 7.51133L16.557 6.87431C16.6914 6.86471 16.8227 6.8199 16.9315 6.73987V7.14641C16.9315 7.51773 16.7107 7.85705 16.3713 8.0075Z" fill="#F1A11E"/>
<path d="M11.665 3.5H17.335C17.4261 3.5 17.5 3.58184 17.5 3.6828V4.3172C17.5 4.41816 17.4261 4.5 17.335 4.5H11.665C11.5739 4.5 11.5 4.41816 11.5 4.3172V3.6828C11.5 3.58184 11.5739 3.5 11.665 3.5Z" fill="#D3D3D3"/>
<path d="M21.6099 11.86L21.6399 12.18C21.6399 12.22 21.6799 12.25 21.7199 12.25C22.1799 12.22 23.2199 12.16 23.7399 12.14C23.7799 12.14 23.8099 12.1 23.8099 12.06L23.7999 11.11C23.7899 10.56 23.4799 10.07 22.9899 9.81996L22.0999 9.37996C22.0749 9.36496 22.0474 9.35246 22.0199 9.33996C21.9924 9.32746 21.9649 9.31496 21.9399 9.29996C21.8999 9.27996 21.8499 9.29996 21.8299 9.33996L21.0399 11.25C21.0199 11.29 21.0399 11.34 21.0899 11.36L21.2799 11.43C21.4599 11.5 21.5899 11.66 21.6099 11.86Z" fill="#D3D3D3"/>
<path d="M25.6318 20.7085C25.6158 20.6864 25.6047 20.6601 25.6001 20.63C25.5801 20.59 25.5801 20.54 25.5901 20.49C25.6127 20.4166 25.6098 20.222 25.6065 20.0072C25.6041 19.8415 25.6014 19.6636 25.6101 19.52C25.6201 19.35 25.4401 19.22 25.2801 19.29H25.2701C25.0501 19.38 24.8001 19.27 24.7101 19.05V19.04C24.6552 18.9106 24.6464 18.7735 24.6759 18.6469C24.2599 18.8737 23.8435 19.1015 23.4691 19.3066L24.4429 21.3448L25.6318 20.7085Z" fill="#D3D3D3"/>
<path d="M12.5927 26.8732C12.8476 26.2508 13.1061 25.6073 13.3323 25.0383L11.1389 24.0272L10.543 25.8207C10.5927 25.8169 10.6437 25.8267 10.6902 25.8499C10.7302 25.8699 10.7602 25.9099 10.7802 25.9599C10.8068 26.0238 10.9128 26.1642 11.0332 26.3237C11.139 26.4639 11.256 26.619 11.3402 26.7499C11.4302 26.8899 11.6502 26.8899 11.7402 26.7399L11.7502 26.7299C11.8702 26.5299 12.1402 26.4699 12.3402 26.5899L12.3502 26.5999C12.4585 26.6685 12.5408 26.7645 12.5927 26.8732Z" fill="#D3D3D3"/>
<path d="M6.14011 27.05L6.31011 26.84L11.4301 29.99L11.2701 30.25C11.1701 30.42 10.9401 30.48 10.7601 30.37L6.24011 27.59C6.06011 27.48 6.01011 27.23 6.14011 27.05Z" fill="#D3D3D3"/>
<path d="M29.7126 22.431L29.9726 22.361C30.1826 22.301 30.2926 22.071 30.2126 21.861L28.2126 16.941C28.1326 16.751 27.9126 16.661 27.7226 16.741L27.4426 16.851L29.7126 22.431Z" fill="#D3D3D3"/>
</svg>

<svg xmlns="http://www.w3.org/2000/svg" width="32" height="32" fill="none"><path fill="#FCB100" d="m23.69 14.55-.05-3.47c-.01-.49-.29-.94-.73-1.15l-.8-.4c-1.16-.57-2.39-.98-3.66-1.2-1.09-.19-2.2-.23-3.29-.13-.52.05-.99.31-1.31.72a3.34 3.34 0 0 0-.65 2.55l.11.7c.15.99.41 1.97.77 2.9l.76 1.97 2.83.96 2.5-.96-.59-2.15-1.36-3.6c-.07-.19.07-.4.27-.4h.18c.84-.01 1.67.12 2.47.39l.25.09c.17.06.28.21.3.38l.21 2.52c.01.18-.04.36-.16.49-.11.12-.16.27-.16.44v.34c0 .5.4.9.9.9h.34c.5 0 .9-.4.9-.9-.03-.49-.03-.99-.03-.99Z"/><path fill="#FCB100" d="M11.4 29.58c-.48.77-1.16.24-1.16.24L6.3 27.39a.235.235 0 0 1-.07-.34c.13-.18.32-.29.54-.31h.04c.39-.04.78-.02 1.16.05L9.1 27c.3.06.6-.02.83-.21.26-.22.46-.51.57-.84l1.05-3.16c.22-.64.56-1.24 1.02-1.74l1.7-1.88c.42-.47.64-1.09.59-1.72l-.03-.4.92.15c1 .16 2 .17 3 .04l1.42-.19.05.67c.017.245-.002.494-.056.736l1.326 1.514c.14.17.38.21.57.11 0 0 4.87-2.68 5.19-2.81.82-.33 1.05.48 1.05.48l1.67 4.2c.05.12-.02.27-.13.31-.2.07-.42.04-.6-.07l-.04-.02c-.33-.2-.62-.44-.88-.72l-.76-.83a.973.973 0 0 0-.78-.32c-.25.02-.5.08-.73.2-.01 0-.01-.01-.01-.01l-4.54 2.43c-.52.28-1.15.26-1.65-.05-.47-.28-.87-.66-1.18-1.11l-.7-1 .01-.012-3.24 2.052c-.46.29-.81.72-1.01 1.23-.61 1.56-1.97 4.96-2.33 5.55Z"/><path fill="#636363" d="M17.9 20.86c0 .02.13.24.29.51.39.65.92 1.22 1.55 1.65l.44.31c.15.1.36.06.45-.09l.13-.21c.51-.81.83-1.72.94-2.66l.03-.25a.536.536 0 0 0-.11-.4l-.08-.11c-.34-.45-1.5-2.2-1.5-2.2l-2.14 3.45Z"/><path fill="#FFC83D" d="m13.38 9.75.31 3.5-1.79 1.69c-.12.11-.24.21-.37.3l-.04.03a3.097 3.097 0 0 1-1.58.54l-1.34.09c-.1.01-.2.05-.27.12l-.63.6c-.07.06-.16.1-.25.1-.24 0-.41-.22-.36-.46.04-.15-.08-.3-.24-.3h-.08c-.03 0-.06.01-.09.02l-1.08.49a.396.396 0 0 1-.56-.33c-.01-.14.05-.28.17-.37l.43-.29c.6-.41 1.26-.72 1.97-.91l2.34-.64c.36-.1.67-.31.89-.61l2.57-3.57Z"/><path fill="#9B9B9B" d="m14.92 17.06 1.26.22c.88.16 1.78.15 2.66 0l1.13-.2c.1-.02.19.06.2.16.12.44.15.9.05 1.34a3.304 3.304 0 0 1-1.43 2.08l-3.25 2c-.16.1-.37.1-.52-.02l-.38-.29a5.8 5.8 0 0 1-1.67-1.98.454.454 0 0 1 .08-.53l.66-.65c.41-.41.72-.91.9-1.47l.19-.59c.02-.05.07-.08.12-.07Z"/><path fill="#FF6723" d="M6.5 22a2.5 2.5 0 1 0 0-5 2.5 2.5 0 0 0 0 5Z"/><path fill="#000" d="M8.999 19.579a2.54 2.54 0 0 0-.004-.238 2.436 2.436 0 0 1-1.525-.621l.89-.89a2.516 2.516 0 0 0-.169-.171l-.901.9a2.433 2.433 0 0 1-.639-1.555 2.525 2.525 0 0 0-.23-.003c.023.62.26 1.232.709 1.719l-.62.62-1.69-1.69c-.06.053-.117.11-.17.17l1.69 1.69-.62.62A2.677 2.677 0 0 0 4 19.42a2.549 2.549 0 0 0 .004.238 2.416 2.416 0 0 1 1.545.642l-.891.891c.054.06.111.116.17.17l.88-.881a2.4 2.4 0 0 1 .63 1.515 2.518 2.518 0 0 0 .24.004 2.673 2.673 0 0 0-.69-1.7l.62-.62 1.672 1.672c.06-.054.116-.11.17-.17L6.68 19.51l.62-.62a2.673 2.673 0 0 0 1.699.689Z"/><path fill="#D3D3D3" d="M12.06 28.13c.4-.95.87-2.11 1.26-3.09l-2.18-1-.63 1.91c-.08.24-.2.45-.37.64.52.4 1.35 1.08 1.92 1.54Z"/><path fill="#FF6723" d="M14.714 17.244a2.12 2.12 0 0 0-.074-.014.416.416 0 0 1-.3-.26l-.63-2.22c-.41-1.87-.5-3.42-.44-4.39.03-.36.13-.7.3-1.02l.18.17c.26.24.61.37.96.37.53-.01 1.01-.32 1.23-.81l.4-.89c.03-.04.07-.06.11-.06h.91c.08 0 .14.08.11.16l-.53 1.29c-.06.13-.17.52-.23.92-.1.64.44 1.22 1.09 1.13l.12-.03.26-.08c.14-.04.28.03.33.16l.82 2.14 1.05 2.98c.06.21-.07.43-.29.47l-.13.02c-1.64.3-3.46.3-5.1-.01-.05-.006-.1-.017-.146-.026ZM25.9 20.77l.02-.01.056-.023c.14-.058.239-.1.354-.117.17-.03.35-.01.52.04l.39.12c.44.13.81.41 1.07.79l.56.83c.08.13.24.19.39.15l.7-.19c.21-.06.32-.29.24-.5l-2-4.92c-.08-.19-.57-.17-.76-.09l-2.38 1.35c-.33.13-.49.51-.35.84v.01c.09.22.34.33.56.24h.01c.16-.07.34.06.33.23a6.958 6.958 0 0 0-.004.487c.004.215.007.41-.016.483-.01.05-.01.1.01.14.02.13.16.19.3.14ZM10.34 25.94l-.01.01-.023.037c-.087.139-.144.23-.227.323-.12.13-.27.22-.44.28l-.38.13c-.43.15-.9.15-1.33-.01l-.94-.34a.361.361 0 0 0-.4.11l-.45.57c-.13.18-.08.43.1.54l4.52 2.78c.18.11.56-.2.67-.38l1.13-2.5c.19-.3.09-.7-.21-.89l-.01-.01a.433.433 0 0 0-.59.14l-.01.01c-.09.15-.31.15-.4.01-.084-.131-.201-.286-.307-.426-.12-.16-.226-.3-.253-.364a.201.201 0 0 0-.09-.11.27.27 0 0 0-.35.09Z"/><path fill="#FDBB11" d="M12.991 6.154a.723.723 0 1 1-1.447 0 .723.723 0 0 1 1.447 0Zm4.238 0a.723.723 0 1 1-1.447 0 .723.723 0 0 1 1.447 0Z"/><path fill="#FFC83D" d="M14.886 2.963h-.973c-1.091 0-1.91.912-1.786 2.042l.163 2.507A1.718 1.718 0 0 0 13.99 9h.826c.858 0 1.588-.637 1.7-1.488l.157-2.507a1.803 1.803 0 0 0-1.787-2.042Z"/><path fill="#990839" d="M14.393 7.495c-.224 0-.442-.05-.64-.153-.035-.02-.077-.007-.093.029-.013.022-.01.048.003.07a.87.87 0 0 0 1.463 0 .071.071 0 0 0-.022-.096.078.078 0 0 0-.07-.003 1.389 1.389 0 0 1-.64.153Z"/><path fill="#ED9200" d="m14.227 6.033-.228.74a.236.236 0 0 0 .225.303h.339a.234.234 0 0 0 .234-.237.267.267 0 0 0-.01-.07l-.227-.74a.17.17 0 0 0-.218-.108.182.182 0 0 0-.115.112Z"/><path fill="#fff" d="M12.738 6.02a.616.616 0 0 1 1.204.029v.019a.101.101 0 0 1-.103.102h-.982c-.01 0-.02 0-.03-.003a.124.124 0 0 1-.089-.147ZM16.048 6.02a.614.614 0 0 0-.598-.468.623.623 0 0 0-.608.497v.019c0 .057.044.102.102.102h.986c.01 0 .02 0 .029-.003a.124.124 0 0 0 .09-.147Z"/><path fill="#7D4533" d="M13.033 6.068a.394.394 0 1 1 .775.105h-.759a.403.403 0 0 1-.016-.105ZM15.754 6.065a.393.393 0 0 0-.394-.394.398.398 0 0 0-.397.394c.003.035.006.07.016.105h.762a.398.398 0 0 0 .013-.105Z"/><path fill="#000" d="M13.427 5.84c.124 0 .227.1.227.225 0 .038-.01.073-.026.108h-.4a.256.256 0 0 1-.026-.105c0-.125.1-.228.225-.228ZM15.363 5.84a.225.225 0 0 0-.201.33h.4a.225.225 0 0 0-.198-.33Z"/><path fill="#fff" d="M13.362 5.91a.07.07 0 1 1-.14 0 .07.07 0 0 1 .14 0ZM15.309 5.91a.07.07 0 1 1-.141 0 .07.07 0 0 1 .14 0Z"/><path fill="#D37034" d="M12.947 5.246a.944.944 0 0 1 .65-.156.125.125 0 0 0 .03-.248 1.194 1.194 0 0 0-.822.197.125.125 0 0 0 .142.207ZM15.978 5.04a1.193 1.193 0 0 0-.822-.198.125.125 0 0 0 .03.248.943.943 0 0 1 .65.156.125.125 0 0 0 .142-.207Z"/><path fill="#F1A11E" d="M17.098 3.859a1.022 1.022 0 0 0-.56-.461c-.25-.08-.461-.246-.599-.467a1.031 1.031 0 0 0-1.284-.413.687.687 0 0 1-.528 0 1.028 1.028 0 0 0-1.274.4 1.172 1.172 0 0 1-.611.483 1.03 1.03 0 0 0-.51 1.56.707.707 0 0 1 .123.38v.221a.707.707 0 0 1 .304-.125V5.08c0-.817.66-1.476 1.475-1.476h.564c.118 0 .227.073.272.186.173.384.557.63.976.63h.618a.643.643 0 0 1 .611.628l-.025.4.013.003h.006c.096.022.186.06.266.118v-.224a.67.67 0 0 1 .118-.38c.227-.33.243-.76.045-1.105Zm-4.85 3.015a.704.704 0 0 1-.396-.134v.403c0 .384.233.73.592.874a1.664 1.664 0 0 1-.15-.509l-.046-.634Zm4.123 1.134c.07-.157.122-.324.144-.497l.042-.637a.718.718 0 0 0 .375-.134v.406c0 .372-.221.711-.56.862Z"/><path fill="#D3D3D3" d="M11.665 3.5h5.67c.091 0 .165.082.165.183v.634c0 .101-.074.183-.165.183h-5.67c-.091 0-.165-.082-.165-.183v-.634c0-.101.074-.183.165-.183ZM21.61 11.86l.03.32c0 .04.04.07.08.07.46-.03 1.5-.09 2.02-.11.04 0 .07-.04.07-.08l-.01-.95c-.01-.55-.32-1.04-.81-1.29l-.89-.44c-.025-.015-.053-.028-.08-.04a.796.796 0 0 1-.08-.04c-.04-.02-.09 0-.11.04l-.79 1.91c-.02.04 0 .09.05.11l.19.07c.18.07.31.23.33.43ZM25.632 20.709a.179.179 0 0 1-.032-.079.22.22 0 0 1-.01-.14c.023-.073.02-.268.017-.483-.003-.166-.006-.343.003-.487.01-.17-.17-.3-.33-.23h-.01a.431.431 0 0 1-.56-.24v-.01a.635.635 0 0 1-.034-.393l-1.207.66.974 2.038 1.189-.636ZM12.593 26.873c.255-.622.513-1.266.74-1.835l-2.194-1.01-.596 1.793c.05-.004.1.006.147.029.04.02.07.06.09.11.027.064.133.204.253.364.106.14.223.295.307.426.09.14.31.14.4-.01l.01-.01c.12-.2.39-.26.59-.14l.01.01a.66.66 0 0 1 .243.273ZM6.14 27.05l.17-.21 5.12 3.15-.16.26c-.1.17-.33.23-.51.12l-4.52-2.78a.376.376 0 0 1-.1-.54ZM29.713 22.431l.26-.07c.21-.06.32-.29.24-.5l-2-4.92a.375.375 0 0 0-.49-.2l-.28.11 2.27 5.58Z"/></svg>
